X: 1
T: Epstein Bulgar v.3   [Dm]
R: bulgar, freylach
Z: John Chambers <jc:trillian.mit.edu>
O: transcr: Steve Rauch 2016
S: Steve Rauch 2016-12
M: 4/4
L: 1/8
K: Dm
"^A"[|] A^GA |\
"Gm"B2 "Dm"A2 "Gm"G2 "Dm"F2 | "A"E4 zA,^CE |\
"A"G3 ^G A/G/F F/E/D | "Dm"EF3 zABA |\
"Dm"f2 "A"e2 "Dm"d2 "D7"c2 | "Gm"B2 "Dm"A2 "Gm"G3 G |
"A"^GA2G A/G/F F/E/D | "Dm"D4 z "^B":: ABA |\
"A"^c4 zABA | "Dm"d4 zAGF |\
"A"E3A A/^G/F F/E/D |1,3 "Dm"EF3 z :|2,4 "Dm"D4 z :|[K:=B]
[K:D] "^C"|: ABA |\
"D"d2 zF A2 zG | F/G/A G/F/E DA^GA |\
F>A BA dF AD | F4 zFED | "A7"E>F GA FE ED |
"D"^GA3 zAGA | FA f=f e_e dc |\
=cB _BA _AG FD | "A7"E>F GA FD EC | "D"D4 z :|

%%sep 1 1 500


